X: 34782
T: Road To Savona, The
R: slip jig
M: 9/8
K: Gmajor
|:~B3 BAG AGE|BcB BAG A2G|ABB BAG cEE|EGE DED cBA:|
Bdd Bdd c2E|EGE DED cBA|Bdd Bdd c2E|EGE DGF G2A|
Bdd Bdd c2E|EGE DGF cBA|Bdd cee dBG|G2E DGF G3||

